svg/emoji_u1f9b8_1f3fb_200d_2642.svg

<?xml version="1.0" encoding="UTF-8" standalone="no"?>
<svg
   xmlns:dc="http://purl.org/dc/elements/1.1/"
   xmlns:cc="http://creativecommons.org/ns#"
   xmlns:rdf="http://www.w3.org/1999/02/22-rdf-syntax-ns#"
   xmlns:svg="http://www.w3.org/2000/svg"
   xmlns="http://www.w3.org/2000/svg"
   xmlns:sodipodi="http://sodipodi.sourceforge.net/DTD/sodipodi-0.dtd"
   xmlns:inkscape="http://www.inkscape.org/namespaces/inkscape"
   width="128"
   height="128"
   style="enable-background:new 0 0 128 128;"
   version="1.1"
   id="svg12"
   sodipodi:docname="emoji_u1f9b8_200d_2642.svg"
   inkscape:version="0.92.3 (2405546, 2018-03-11)">
  <metadata
     id="metadata18">
    <rdf:RDF>
      <cc:Work
         rdf:about="">
        <dc:format>image/svg+xml</dc:format>
        <dc:type
           rdf:resource="http://purl.org/dc/dcmitype/StillImage" />
        <dc:title></dc:title>
      </cc:Work>
    </rdf:RDF>
  </metadata>
  <defs
     id="defs16" />
  <sodipodi:namedview
     pagecolor="#ffffff"
     bordercolor="#666666"
     borderopacity="1"
     objecttolerance="10"
     gridtolerance="10"
     guidetolerance="10"
     inkscape:pageopacity="0"
     inkscape:pageshadow="2"
     inkscape:window-width="993"
     inkscape:window-height="506"
     id="namedview14"
     showgrid="false"
     inkscape:snap-grids="false"
     inkscape:object-paths="true"
     inkscape:snap-global="false"
     inkscape:zoom="3.6875"
     inkscape:cx="78.727695"
     inkscape:cy="46.970598"
     inkscape:window-x="738"
     inkscape:window-y="370"
     inkscape:window-maximized="0"
     inkscape:current-layer="svg12">
    <inkscape:grid
       type="xygrid"
       id="grid865" />
  </sodipodi:namedview>
  <g
     id="XMLID_861_">
    <path
       inkscape:connector-curvature="0"
       style="fill:#dba689"
       d="m 106.91,66.04 c 0,0 7.87,1.36 7.87,9.84 0,7.48 -5.74,10.43 -11.48,10.43 V 66.04 Z"
       id="XMLID_865_" />
    <path
       inkscape:connector-curvature="0"
       style="fill:#dba689"
       d="m 21.09,66.04 c 0,0 -7.87,1.36 -7.87,9.84 0,7.48 5.74,10.43 11.48,10.43 V 66.04 Z"
       id="XMLID_862_" />
  </g>
  <path
     inkscape:connector-curvature="0"
     style="fill:#fadcbc"
     d="m 64,10.55 c -33.91,0 -42.78,26.29 -42.78,63.22 0,38.29 24.61,48.19 42.78,48.19 17.9,0 42.78,-9.62 42.78,-48.19 0,-36.94 -8.87,-63.22 -42.78,-63.22 z"
     id="XMLID_860_" />
  <path
     inkscape:connector-curvature="0"
     style="fill:#513f35"
     d="m 76.38,100.52 c -1.73,0 -12.38,0 -12.38,0 0,0 -10.65,0 -12.38,0 -1.42,0 -2.03,0.95 -1.09,2.38 1.31,2 6.19,5.85 13.47,5.85 7.28,0 12.16,-3.85 13.47,-5.85 0.94,-1.43 0.33,-2.38 -1.09,-2.38 z"
     id="XMLID_969_" />
  <path
     inkscape:connector-curvature="0"
     style="fill:#dba689"
     d="m 69.98,89.99 c -2.11,0.6 -4.29,0.89 -5.98,0.89 -1.69,0 -3.87,-0.29 -5.98,-0.89 -0.9,-0.26 -1.25,0.6 -0.93,1.17 0.67,1.18 3.36,3.55 6.91,3.55 3.55,0 6.24,-2.37 6.91,-3.55 0.33,-0.57 -0.03,-1.42 -0.93,-1.17 z"
     id="XMLID_960_" />
  <path
     style="fill:#00cc00;fill-opacity:0.87843138;stroke:none;stroke-width:0.99999994px;stroke-linecap:butt;stroke-linejoin:miter;stroke-opacity:1"
     d="M 41.480469 68.580078 C 34.48047 68.580078 24.513672 71.580078 24.513672 71.580078 C 23.079241 72.789318 21.990614 74.045081 21.251953 75.347656 C 21.315762 78.836088 21.585686 82.083261 22.042969 85.099609 C 22.450596 85.158319 32.386893 86.580078 39.244141 86.580078 C 47.532065 86.73673 56.632624 83.626953 63.445312 83.626953 L 66.183594 83.626953 C 72.996282 83.626953 82.096842 86.73673 90.384766 86.580078 C 95.603879 86.580078 102.66078 85.748503 105.92383 85.324219 C 106.47059 81.791685 106.7793 77.961043 106.7793 73.769531 C 106.7793 73.429197 106.773 73.096325 106.77148 72.757812 C 106.30892 72.319283 105.7614 71.92381 105.11523 71.580078 C 105.11523 71.580078 95.148437 68.580078 88.148438 68.580078 C 79.201566 69.004365 72.711693 72.681641 64.814453 72.681641 C 56.917213 72.681641 50.42734 69.004365 41.480469 68.580078 z "
     id="path867" />
  <path
     inkscape:connector-curvature="0"
     style="fill:#444444"
     d="m 49.91,77.19 c 0,3.81 -2.55,6.9 -5.71,6.9 -3.16,0 -5.73,-3.09 -5.73,-6.9 0,-3.82 2.57,-6.91 5.73,-6.91 3.16,0 5.71,3.09 5.71,6.91"
     id="XMLID_976_" />
  <path
     inkscape:connector-curvature="0"
     style="fill:#444444"
     d="m 78.08,77.19 c 0,3.81 2.56,6.9 5.72,6.9 3.15,0 5.72,-3.09 5.72,-6.9 0,-3.82 -2.57,-6.91 -5.72,-6.91 -3.16,0 -5.72,3.09 -5.72,6.91"
     id="XMLID_971_" />
  <path
     inkscape:connector-curvature="0"
     style="fill:212121"
     d="m 65.02,5.72 c 0,0 -0.66,-0.02 -0.95,-0.02 -0.29,0 -0.95,0.02 -0.95,0.02 C 26.53,6.43 15.5,28.44 15.5,43.71 c 0,14.84 0.01,25.74 0.01,25.74 0,0 0.58,-0.6 1.66,-1.44 1.15,-0.89 2.41,-1.39 2.41,-1.39 L 21.43,79 33.62,53.52 c 0.07,-0.16 0.24,-0.25 0.41,-0.23 l 7.23,0.8 c 7.26,0.81 14.56,1.2 21.86,1.22 v 0.02 c 0.32,0 0.63,-0.01 0.95,-0.01 0.32,0 0.63,0.01 0.95,0.01 v -0.02 c 7.3,-0.02 14.59,-0.41 21.86,-1.22 l 7.23,-0.8 c 0.17,-0.02 0.34,0.07 0.41,0.23 L 106.71,79 108.56,66.61 c 0,0 1.27,0.5 2.41,1.39 1.08,0.84 1.66,1.44 1.66,1.44 0,0 0.01,-10.9 0.01,-25.74 C 112.65,28.44 101.62,6.43 65.02,5.72 Z"
     id="XMLID_35_" />
</svg>

<svg xmlns="http://www.w3.org/2000/svg" width="128" height="128"><g fill="#dba689"><path d="M106.91 66.04s7.87 1.36 7.87 9.84c0 7.48-5.74 10.43-11.48 10.43V66.04zM21.09 66.04s-7.87 1.36-7.87 9.84c0 7.48 5.74 10.43 11.48 10.43V66.04z"/></g><path d="M64 10.55c-33.91 0-42.78 26.29-42.78 63.22 0 38.29 24.61 48.19 42.78 48.19 17.9 0 42.78-9.62 42.78-48.19 0-36.94-8.87-63.22-42.78-63.22z" fill="#fadcbc"/><path d="M76.38 100.52H64 51.62c-1.42 0-2.03.95-1.09 2.38 1.31 2 6.19 5.85 13.47 5.85s12.16-3.85 13.47-5.85c.94-1.43.33-2.38-1.09-2.38z" fill="#513f35"/><path d="M69.98 89.99c-2.11.6-4.29.89-5.98.89-1.69 0-3.87-.29-5.98-.89-.9-.26-1.25.6-.93 1.17.67 1.18 3.36 3.55 6.91 3.55 3.55 0 6.24-2.37 6.91-3.55.33-.57-.03-1.42-.93-1.17z" fill="#dba689"/><path d="M41.48 68.58c-7 0-16.966 3-16.966 3-1.435 1.21-2.523 2.465-3.262 3.768.064 3.488.334 6.735.791 9.752.408.058 10.344 1.48 17.201 1.48 8.288.157 17.389-2.953 24.201-2.953h2.739c6.812 0 15.913 3.11 24.2 2.953 5.22 0 12.277-.831 15.54-1.256.547-3.532.855-7.363.855-11.554 0-.34-.006-.674-.008-1.012a7.522 7.522 0 0 0-1.656-1.178s-9.967-3-16.967-3c-8.946.424-15.436 4.102-23.334 4.102-7.897 0-14.387-3.678-23.334-4.102z" fill="#0c0" fill-opacity=".878"/><path d="M49.91 77.19c0 3.81-2.55 6.9-5.71 6.9s-5.73-3.09-5.73-6.9c0-3.82 2.57-6.91 5.73-6.91 3.16 0 5.71 3.09 5.71 6.91M78.08 77.19c0 3.81 2.56 6.9 5.72 6.9 3.15 0 5.72-3.09 5.72-6.9 0-3.82-2.57-6.91-5.72-6.91-3.16 0-5.72 3.09-5.72 6.91" fill="#444"/><path d="M65.02 5.72s-.66-.02-.95-.02c-.29 0-.95.02-.95.02-36.59.71-47.62 22.72-47.62 37.99 0 14.84.01 25.74.01 25.74s.58-.6 1.66-1.44c1.15-.89 2.41-1.39 2.41-1.39L21.43 79l12.19-25.48c.07-.16.24-.25.41-.23l7.23.8c7.26.81 14.56 1.2 21.86 1.22v.02c.32 0 .63-.01.95-.01.32 0 .63.01.95.01v-.02c7.3-.02 14.59-.41 21.86-1.22l7.23-.8c.17-.02.34.07.41.23L106.71 79l1.85-12.39s1.27.5 2.41 1.39c1.08.84 1.66 1.44 1.66 1.44s.01-10.9.01-25.74c.01-15.26-11.02-37.27-47.62-37.98z" fill="212121"/></svg>
